X: 1261
T: Mr Charles Sharp of Hoddon's Giga
%R: jig
B: Niel Gow & Sons "A Collection of Strathspey Reels, etc." v.1 p.26 #1
Z: 2022 John Chambers <jc:trillian.mit.edu>
M: 6/8
L: 1/8
K: D
% - - - - - - - - - -
V: 1 staves=2
F/G/ |\
A3 (B/c/d).B | {B}A2G FGA | Bcd {B}AGF | GEE E2F/G/ ||\
A3 (B/c/d).B | {B}A2G FGA | (B/c/d).B (c/d/e).c | dDD D2 :|
|: f/e/ |\
(Tdcd) def | ecA ABc | TdcB AGF | GEE E2f/g/ ||\
agf bgf | efd {d}c>BA | (B/c/d).B (c/d/e).c | dDD D2 :|
% - - - - - - - - - -
% Voice 2 preserves the staff layout in the book.
V: 2 clef=bass middle=d
z | d3 g3 | d'3 d3 | g3 f2d | Ace a2g || f3 d2g | d'3 d3 | g3 a3 | d'af d2 :||:
z | f3 ^g3 | a2c' d'3 | g3 f2d | a3 A2g || f3 g3 | ^g3 a3 | g3 a3 | d'af d2 :|


